X: 33290
T: Put Me In The Big Chest
R: reel
M: 4/4
K: Amajor
EFAB c2 af|ecBA F2 AF|EFAB c2 ca|ecBc A2:|
efec eAae|faec BABc|efec efac|ecBc A2:|

